res/skins/LateNight/buttons/btn_beatbox_halve_pressed.svg

<?xml version="1.0" encoding="UTF-8" standalone="no"?>
<!-- Created with Inkscape (http://www.inkscape.org/) -->

<svg
   xmlns:dc="http://purl.org/dc/elements/1.1/"
   xmlns:cc="http://creativecommons.org/ns#"
   xmlns:rdf="http://www.w3.org/1999/02/22-rdf-syntax-ns#"
   xmlns:svg="http://www.w3.org/2000/svg"
   xmlns="http://www.w3.org/2000/svg"
   xmlns:xlink="http://www.w3.org/1999/xlink"
   version="1.1"
   width="18"
   height="12"
   id="svg3063">
  <metadata
     id="metadata3073">
    <rdf:RDF>
      <cc:Work
         rdf:about="">
        <dc:format>image/svg+xml</dc:format>
        <dc:type
           rdf:resource="http://purl.org/dc/dcmitype/StillImage" />
        <dc:title></dc:title>
      </cc:Work>
    </rdf:RDF>
  </metadata>
  <defs
     id="defs3071">
    <linearGradient
       id="linearGradient5420">
      <stop
         id="stop5422"
         style="stop-color:#101010;stop-opacity:1"
         offset="0" />
      <stop
         id="stop5424"
         style="stop-color:#242424;stop-opacity:1"
         offset="1" />
    </linearGradient>
    <linearGradient
       x1="12.551146"
       y1="21.841436"
       x2="12.525126"
       y2="1.1143692"
       id="linearGradient5426"
       xlink:href="#linearGradient5420"
       gradientUnits="userSpaceOnUse" />
    <linearGradient
       x1="12.551146"
       y1="21.841436"
       x2="12.525126"
       y2="1.1143692"
       id="linearGradient7042"
       xlink:href="#linearGradient5420-5"
       gradientUnits="userSpaceOnUse" />
    <linearGradient
       id="linearGradient5420-5">
      <stop
         id="stop5422-3"
         style="stop-color:#101010;stop-opacity:1"
         offset="0" />
      <stop
         id="stop5424-5"
         style="stop-color:#242424;stop-opacity:1"
         offset="1" />
    </linearGradient>
    <linearGradient
       x1="12.551146"
       y1="21.841436"
       x2="12.525126"
       y2="1.1143692"
       id="linearGradient7106"
       xlink:href="#linearGradient5420-5"
       gradientUnits="userSpaceOnUse" />
    <linearGradient
       x1="12.551146"
       y1="21.841436"
       x2="12.525126"
       y2="1.1143692"
       id="linearGradient6970"
       xlink:href="#linearGradient5420-5-7"
       gradientUnits="userSpaceOnUse"
       gradientTransform="matrix(1.0320341,0,0,1,0.5,9e-6)" />
    <linearGradient
       id="linearGradient5420-5-7">
      <stop
         id="stop5422-3-0"
         style="stop-color:#101010;stop-opacity:1"
         offset="0" />
      <stop
         id="stop5424-5-9"
         style="stop-color:#242424;stop-opacity:1"
         offset="1" />
    </linearGradient>
    <linearGradient
       x1="12.551146"
       y1="21.841436"
       x2="12.525126"
       y2="1.1143692"
       id="linearGradient4071"
       xlink:href="#linearGradient5420-5-7"
       gradientUnits="userSpaceOnUse"
       gradientTransform="matrix(1.0320341,0,0,1.0144928,0.5,0.03334246)" />
    <linearGradient
       x1="12.551146"
       y1="21.841436"
       x2="12.525126"
       y2="1.1143692"
       id="linearGradient4263"
       xlink:href="#linearGradient5420-5-7-3"
       gradientUnits="userSpaceOnUse"
       gradientTransform="matrix(1.0320341,0,0,1.0144928,0.5,-9.9666576)" />
    <linearGradient
       id="linearGradient5420-5-7-3">
      <stop
         id="stop5422-3-0-5"
         style="stop-color:#101010;stop-opacity:1"
         offset="0" />
      <stop
         id="stop5424-5-9-6"
         style="stop-color:#242424;stop-opacity:1"
         offset="1" />
    </linearGradient>
  </defs>
  <rect
     width="18"
     height="12"
     x="0"
     y="-4.9027449e-13"
     id="rect3227"
     style="color:#000000;fill:#101010;fill-opacity:1;fill-rule:nonzero;stroke:none;stroke-width:1;marker:none;visibility:visible;display:inline;overflow:visible;enable-background:accumulate" />
  <path
     d="M 0.5,8.583333 C 0.5,10.2092 1.6801077,11.499979 3.1666667,11.5 l 11.6670003,1.67e-4 c 1.486559,2.1e-5 2.666667,-1.2908 2.666667,-2.9166674 l 0,-8.583333 L 0.5,0 z"
     id="path3067-6"
     style="font-weight:400;text-indent:0;text-align:start;line-height:normal;text-transform:none;block-progression:tb;color:#000000;fill:url(#linearGradient4263);fill-opacity:1;marker:none;overflow:visible;font-family:Sans;-inkscape-font-specification:Sans" />
  <path
     d="M 3.1731557,12 C 1.3766013,12 0.02087656,10.34224 0.0169056,8.375 L 0,-1.49e-4 l 18,0 L 18.01648,8.375 C 18.02038,10.34224 16.656784,12 14.860229,12 z m 0,-1 11.6870753,0 c 1.176565,0 2.159637,-1.1095596 2.15625,-2.625 L 17,0.499851 l -16,0 L 1.0169055,8.375 C 1.0201555,9.8904406 1.9965921,11 3.1731557,11 z"
     id="path3067-6-3"
     style="font-size:medium;font-style:normal;font-variant:normal;font-weight:400;font-stretch:normal;text-indent:0;text-align:start;text-decoration:none;line-height:normal;letter-spacing:normal;word-spacing:normal;text-transform:none;direction:ltr;block-progression:tb;writing-mode:lr-tb;text-anchor:start;baseline-shift:baseline;color:#000000;fill:#666666;fill-opacity:1;stroke:none;stroke-width:1;marker:none;visibility:visible;display:inline;overflow:visible;enable-background:accumulate;font-family:Sans;-inkscape-font-specification:Sans" />
  <path
     d="M 8.9999996,10 4.9585464,3 13.041454,3 z"
     id="path3065-6"
     style="fill:#888888;fill-opacity:1" />
</svg>

<?xml version="1.0" encoding="UTF-8"?>
<!-- Created with Inkscape (http://www.inkscape.org/) -->
<svg id="svg3063" width="18" height="12" version="1.1" xmlns="http://www.w3.org/2000/svg" xmlns:cc="http://creativecommons.org/ns#" xmlns:dc="http://purl.org/dc/elements/1.1/" xmlns:rdf="http://www.w3.org/1999/02/22-rdf-syntax-ns#" xmlns:xlink="http://www.w3.org/1999/xlink">
 <metadata id="metadata3073">
  <rdf:RDF>
   <cc:Work rdf:about="">
    <dc:format>image/svg+xml</dc:format>
    <dc:type rdf:resource="http://purl.org/dc/dcmitype/StillImage"/>
    <dc:title/>
   </cc:Work>
  </rdf:RDF>
 </metadata>
 <defs id="defs3071">
  <linearGradient id="linearGradient4263" x1="12.551" x2="12.525" y1="21.841" y2="1.1144" gradientTransform="matrix(1.032 0 0 1.0145 .5 -9.9667)" gradientUnits="userSpaceOnUse">
   <stop id="stop5422-3-0-5" stop-color="#101010" offset="0"/>
   <stop id="stop5424-5-9-6" stop-color="#242424" offset="1"/>
  </linearGradient>
 </defs>
 <rect id="rect3227" y="-4.9027e-13" width="18" height="12" color="#000000" fill="#101010"/>
 <path id="path3067-6" d="m0.5 8.5833c0 1.6259 1.1801 2.9166 2.6667 2.9167l11.667 1.67e-4c1.4866 2.1e-5 2.6667-1.2908 2.6667-2.9167v-8.5833l-17-1.666e-4z" color="#000000" fill="url(#linearGradient4263)" style="block-progression:tb;text-indent:0;text-transform:none"/>
 <path id="path3067-6-3" d="m3.1732 12c-1.7966 0-3.1523-1.6578-3.1563-3.625l-0.016906-8.3751h18l0.01648 8.3751c0.0039 1.9672-1.3597 3.625-3.1563 3.625zm0-1h11.687c1.1766 0 2.1596-1.1096 2.1562-2.625l-0.016481-7.8751h-16l0.016906 7.8751c0.00325 1.5154 0.97969 2.625 2.1563 2.625z" color="#000000" fill="#666" style="block-progression:tb;text-indent:0;text-transform:none"/>
 <path id="path3065-6" d="m9 10-4.0415-7h8.0829z" fill="#888"/>
</svg>
